src/assets/images/intro-icon.svg

<svg width="40" height="40" viewBox="0 0 40 40" fill="none" xmlns="http://www.w3.org/2000/svg">
<path d="M5.15123 15.6045C5.08651 13.1687 5.67541 11.0397 6.73026 9.02966C7.77863 7.03217 9.22824 5.34776 11.0985 4.02653C12.794 2.82428 14.6643 1.9539 16.7351 1.55315C18.4047 1.22754 20.0809 1.13987 21.7764 1.35903C23.1224 1.53436 24.4491 1.77857 25.711 2.27951C26.8435 2.73035 27.9048 3.30643 28.8885 4.00775C31.1211 5.60449 32.7584 7.65834 33.8391 10.1192C34.2533 11.0647 34.5316 12.0603 34.7128 13.081C34.9328 14.2895 34.9846 15.5106 34.9069 16.7253C34.8293 17.9464 34.551 19.1424 34.1627 20.3196C33.7032 21.7285 33.0043 23.0121 32.1113 24.1956C31.2506 25.3415 30.2281 26.3309 29.0373 27.1699C27.5101 28.2469 25.8598 29.0798 24.0349 29.5682C22.5012 29.9752 20.9416 30.1067 19.3496 29.9752C18.4047 29.9 17.4599 29.8312 16.5216 29.6558C15.3373 29.4304 14.2307 29.0171 13.1952 28.4348C10.9626 27.1762 9.00174 25.5982 7.58449 23.4818C6.57495 21.9727 5.74013 20.3697 5.41008 18.5726C5.22241 17.5394 5.08004 16.4999 5.14476 15.6045H5.15123ZM20.1973 27.4517C26.4487 27.3265 32.0724 22.5738 32.2407 15.8737C32.4089 9.09854 26.7917 3.8199 19.9708 3.81363C13.247 3.80737 7.86276 9.24256 7.80452 15.4855C7.74628 21.8913 13.124 27.4893 20.1973 27.458V27.4517Z" fill="white"/>
<path d="M37.6315 33.807C36.939 33.7255 36.2401 33.6441 35.5477 33.5565C34.687 33.45 33.8263 33.3373 32.9656 33.2246C32.8944 33.2183 32.8167 33.2246 32.7455 33.2183C32.5126 33.2058 32.3767 33.2997 32.2861 33.5126C31.7295 34.8214 31.1665 36.1238 30.597 37.4262C30.4158 37.8395 30.2087 38.2465 29.8269 38.5283C29.5422 38.7412 29.0827 38.785 28.7591 38.6222C28.3838 38.4344 28.1443 38.1213 27.9308 37.7832C27.4195 36.9566 26.9277 36.1175 26.4165 35.291C26.1317 34.8276 25.8211 34.3768 25.5234 33.9197C25.2192 33.4563 24.9086 32.9992 24.6045 32.5421C24.5915 32.5233 24.585 32.5108 24.5721 32.492C24.3262 32.0787 24.3585 32.0036 24.8115 31.822C25.7823 31.4338 26.7659 31.0768 27.7172 30.6448C28.4226 30.3254 29.0827 29.9184 29.7428 29.5114C30.9594 28.7662 31.9948 27.8207 32.9785 26.8126C33.5221 26.2616 34.0075 25.6729 34.4022 25.0217C34.4863 24.884 34.6093 24.765 34.7193 24.6398C34.8164 24.5271 34.9005 24.5396 34.9846 24.6648C35.3665 25.2597 35.7548 25.842 36.1236 26.4431C36.5119 27.0693 36.8873 27.7018 37.2432 28.3467C37.8515 29.43 38.4533 30.5133 39.0358 31.6091C39.2299 31.9723 39.3788 32.3542 39.2882 32.7925C39.1717 33.3311 38.7769 33.7631 38.0198 33.7694C37.8903 33.7694 37.7609 33.7694 37.6379 33.7694C37.6379 33.7819 37.6379 33.7944 37.6379 33.807H37.6315Z" fill="white"/>
<path d="M0.679565 32.6422C0.796051 32.3354 0.873709 32.0098 1.03549 31.7218C1.47555 30.9453 1.96738 30.2002 2.40744 29.4174C3.06106 28.259 3.68879 27.0818 4.32946 25.9109C4.43948 25.7167 4.55596 25.5226 4.67245 25.3348C4.7954 25.1344 4.92483 24.934 5.04132 24.7337C5.17075 24.5082 5.22899 24.4957 5.41019 24.6836C5.52021 24.7963 5.62375 24.9215 5.70788 25.053C6.50387 26.2615 7.51988 27.2822 8.61356 28.234C9.62957 29.1169 10.7427 29.8558 11.9399 30.4757C12.9041 30.9766 13.9137 31.3648 14.9491 31.703C15.1044 31.7531 15.2533 31.8032 15.4086 31.8595C15.5639 31.9096 15.6351 32.0223 15.5833 32.1601C15.5056 32.3792 15.415 32.5984 15.2921 32.7988C14.6514 33.8758 14.0107 34.9591 13.3507 36.0236C12.9365 36.6873 12.4964 37.3323 12.0434 37.9772C11.8169 38.2966 11.4998 38.5408 11.118 38.6785C10.6909 38.8351 10.3673 38.7725 10.102 38.4218C9.86902 38.1213 9.65546 37.8019 9.49367 37.4575C9.0795 36.5746 8.69769 35.6729 8.30293 34.7837C8.11526 34.3642 7.91464 33.9509 7.71403 33.5439C7.59107 33.2872 7.4034 33.187 7.10571 33.2246C6.02498 33.3561 4.94425 33.5001 3.86352 33.6253C3.19696 33.7005 2.5304 33.8194 1.8509 33.7318C1.42378 33.6754 1.10021 33.4813 0.88018 33.1369C0.78958 32.9991 0.750751 32.8301 0.679565 32.636V32.6422Z" fill="white"/>
<path d="M18.9549 20.5571C19.4662 20.5571 20.0227 20.1877 20.1715 19.718C20.3139 19.2734 20.4498 18.8226 20.5663 18.3655C20.9999 16.7249 21.427 15.0843 21.8476 13.4438C22.0547 12.6235 22.2554 11.7969 22.443 10.9704C22.5272 10.5947 22.4883 10.2378 22.2165 9.91841C21.6923 9.30476 20.974 9.32354 20.301 9.6742C20.0939 9.78065 19.958 9.94346 19.8997 10.1689C19.8544 10.3317 19.7962 10.4945 19.7509 10.6573C19.2526 12.5922 18.7414 14.5208 18.256 16.4557C18.0295 17.3386 17.8289 18.2277 17.6477 19.1232C17.46 20.0311 18.2366 20.5759 18.9549 20.5634V20.5571Z" fill="white"/>
<path d="M10.9691 15.0482C10.9432 15.2799 11.0338 15.5116 11.1956 15.7119C11.3186 15.8747 11.4609 16.025 11.6162 16.1628C12.2634 16.7639 12.917 17.3525 13.5706 17.9474C13.8295 18.1853 14.0948 18.417 14.3666 18.6424C14.6967 18.9179 15.0591 18.9367 15.4797 18.8115C16.1398 18.6111 16.7287 17.5028 16.0362 16.7952C15.7968 16.551 15.5574 16.3005 15.3114 16.0626C14.9943 15.7495 14.6772 15.4427 14.3537 15.1359C14.2437 15.0294 14.2566 14.9167 14.3537 14.8102C14.4572 14.7101 14.5608 14.6036 14.6643 14.5034C15.1108 14.0839 15.5574 13.6706 15.9974 13.2511C16.2563 13.0006 16.431 12.6875 16.4116 12.3431C16.3792 11.7733 16.0686 11.3663 15.5185 11.1158C15.0461 10.9029 14.6449 11.0219 14.2501 11.2786C14.1725 11.3287 14.0948 11.3851 14.0301 11.4477C13.5706 11.8798 13.1111 12.3118 12.6646 12.7564C12.1987 13.2198 11.7392 13.6831 11.2927 14.159C11.0726 14.397 10.9497 14.685 10.9691 15.0482Z" fill="white"/>
<path d="M25.0639 18.9591C25.4586 18.9591 25.7757 18.8025 26.054 18.5333C26.6753 17.9322 27.303 17.3435 27.9243 16.7424C28.2608 16.4168 28.6102 16.0975 28.9144 15.7405C29.2768 15.3147 29.2897 14.8702 28.9856 14.4005C28.8303 14.1626 28.6426 13.9309 28.4355 13.7243C27.7495 13.048 27.0506 12.3905 26.3582 11.7205C26.0605 11.4325 25.724 11.1945 25.3098 11.0818C24.6756 10.919 23.8926 11.4199 23.789 12.0461C23.7178 12.4719 23.8667 12.8414 24.1514 13.1419C24.5915 13.6115 25.0445 14.0687 25.5039 14.5132C25.9311 14.9328 25.9505 15.0392 25.5298 15.465C25.1351 15.8658 24.7144 16.2477 24.3197 16.6485C24.1773 16.7925 24.0414 16.9553 23.9508 17.1306C23.7437 17.5189 23.7178 17.9259 23.9702 18.3016C24.2226 18.6836 24.5721 18.9528 25.0768 18.9466L25.0639 18.9591Z" fill="white"/>
<path d="M18.9549 20.5568C18.2366 20.5693 17.4665 20.0245 17.6477 19.1166C17.8289 18.2212 18.036 17.332 18.256 16.4491C18.7478 14.5142 19.2526 12.5856 19.7509 10.6507C19.7962 10.4879 19.8544 10.3251 19.8997 10.1623C19.958 9.93687 20.0939 9.77407 20.301 9.66762C20.9805 9.32322 21.6988 9.30444 22.2165 9.91183C22.4883 10.2312 22.5271 10.5881 22.443 10.9638C22.2553 11.7903 22.0612 12.6169 21.8476 13.4372C21.427 15.0778 20.9999 16.7183 20.5663 18.3589C20.4498 18.8098 20.3139 19.2669 20.1715 19.7115C20.0162 20.1811 19.4597 20.5568 18.9549 20.5505V20.5568Z" fill="white"/>
<path d="M10.9691 15.0471C10.9497 14.6901 11.0727 14.3958 11.2927 14.1579C11.7392 13.682 12.1987 13.2124 12.6646 12.7553C13.1112 12.3107 13.5707 11.8849 14.0301 11.4466C14.0948 11.3839 14.1725 11.3276 14.2502 11.2775C14.6449 11.0208 15.0461 10.8955 15.5186 11.1147C16.0686 11.3652 16.3793 11.7722 16.4116 12.342C16.431 12.6864 16.2628 12.9995 15.9974 13.2499C15.5574 13.6695 15.1109 14.0827 14.6643 14.5023C14.5608 14.6025 14.4572 14.7089 14.3537 14.8091C14.2502 14.9156 14.2372 15.022 14.3537 15.1347C14.6708 15.4415 14.9944 15.7484 15.3115 16.0615C15.5574 16.3057 15.7968 16.5499 16.0363 16.7941C16.7222 17.5017 16.1398 18.61 15.4797 18.8104C15.0591 18.9356 14.7032 18.9168 14.3666 18.6413C14.0948 18.4159 13.8295 18.1842 13.5707 17.9462C12.917 17.3514 12.2634 16.7628 11.6163 16.1616C11.4674 16.0239 11.3251 15.8736 11.1956 15.7108C11.0403 15.5104 10.9432 15.2787 10.9691 15.0471Z" fill="white"/>
<path d="M25.0639 18.9602C24.5591 18.9665 24.2161 18.6972 23.9573 18.3153C23.7049 17.9396 23.7308 17.5325 23.9379 17.1443C24.0349 16.969 24.1644 16.8062 24.3067 16.6622C24.7015 16.2614 25.1221 15.8794 25.5169 15.4787C25.9375 15.0529 25.9181 14.9402 25.491 14.5269C25.0315 14.0761 24.5721 13.6252 24.1385 13.1556C23.8537 12.8488 23.7049 12.4856 23.7761 12.0598C23.8796 11.4336 24.6627 10.9327 25.2969 11.0955C25.711 11.2019 26.0475 11.4461 26.3452 11.7342C27.0377 12.3979 27.7366 13.0617 28.4226 13.7379C28.6297 13.9383 28.8109 14.17 28.9726 14.4142C29.2768 14.8776 29.2639 15.3284 28.9015 15.7542C28.5973 16.1111 28.2478 16.4305 27.9113 16.7561C27.2901 17.3572 26.6623 17.9458 26.0411 18.547C25.7628 18.8162 25.4457 18.9727 25.0509 18.9727L25.0639 18.9602Z" fill="white"/>
</svg>

<svg xmlns="http://www.w3.org/2000/svg" width="40" height="40" fill="none"><path fill="#fff" d="M5.151 15.604c-.064-2.435.524-4.564 1.58-6.574a14.02 14.02 0 0 1 4.367-5.003c1.696-1.203 3.566-2.073 5.637-2.474 1.67-.325 3.346-.413 5.041-.194 1.346.175 2.673.42 3.935.92a15.034 15.034 0 0 1 3.178 1.729c2.232 1.596 3.87 3.65 4.95 6.111.414.946.693 1.941.874 2.962.22 1.209.272 2.43.194 3.644-.078 1.221-.356 2.417-.744 3.595-.46 1.409-1.159 2.692-2.052 3.876a13.634 13.634 0 0 1-3.074 2.974c-1.527 1.077-3.177 1.91-5.002 2.398-1.534.407-3.093.539-4.685.407-.945-.075-1.89-.144-2.828-.32a10.906 10.906 0 0 1-3.327-1.22c-2.232-1.259-4.193-2.837-5.61-4.953-1.01-1.51-1.845-3.112-2.175-4.91-.188-1.033-.33-2.072-.265-2.967h.006Zm15.046 11.848c6.252-.126 11.875-4.878 12.044-11.578.168-6.775-5.45-12.054-12.27-12.06-6.724-.007-12.108 5.429-12.166 11.671-.059 6.406 5.319 12.004 12.392 11.973v-.006ZM37.632 33.807c-.693-.082-1.392-.163-2.084-.25-.861-.107-1.722-.22-2.582-.332-.072-.007-.15 0-.22-.007-.233-.012-.37.082-.46.295a421.172 421.172 0 0 1-1.689 3.913c-.181.413-.388.82-.77 1.102a1.085 1.085 0 0 1-1.068.094c-.375-.188-.615-.5-.828-.839-.512-.826-1.003-1.666-1.515-2.492-.284-.463-.595-.914-.893-1.371-.304-.464-.614-.92-.918-1.378-.014-.019-.02-.031-.033-.05-.246-.413-.213-.488.24-.67.97-.388 1.954-.745 2.905-1.177.706-.32 1.366-.727 2.026-1.134 1.216-.745 2.252-1.69 3.235-2.698a9.785 9.785 0 0 0 1.424-1.791c.084-.138.207-.257.317-.382.097-.113.181-.1.266.025.382.595.77 1.177 1.139 1.778.388.626.763 1.259 1.12 1.904a161.33 161.33 0 0 1 1.792 3.262c.194.363.343.745.252 1.183-.116.54-.511.971-1.268.977h-.382v.038h-.006ZM.68 32.642c.116-.307.194-.632.355-.92.44-.777.932-1.522 1.372-2.305.654-1.158 1.282-2.335 1.922-3.506.11-.194.227-.388.343-.576.123-.2.253-.401.37-.601.129-.226.187-.238.368-.05.11.112.214.238.298.369.796 1.209 1.812 2.23 2.906 3.181a16.854 16.854 0 0 0 3.326 2.242c.964.5 1.974.889 3.01 1.227.154.05.303.1.459.157.155.05.226.162.174.3-.077.22-.168.438-.29.639-.642 1.077-1.282 2.16-1.942 3.225a43.141 43.141 0 0 1-1.308 1.953c-.226.32-.543.564-.925.702-.427.156-.75.093-1.016-.257-.233-.3-.447-.62-.608-.964-.415-.883-.796-1.785-1.191-2.674a36.83 36.83 0 0 0-.589-1.24c-.123-.257-.31-.357-.608-.32-1.081.132-2.162.276-3.242.401-.667.075-1.334.194-2.013.107-.427-.057-.75-.25-.97-.595-.091-.138-.13-.307-.201-.501v.006Z"/><path fill="#fff" d="M18.955 20.557c.511 0 1.068-.37 1.217-.839.142-.445.278-.895.394-1.352.434-1.641.861-3.282 1.282-4.922.207-.82.407-1.647.595-2.474.084-.375.045-.732-.227-1.052-.524-.613-1.242-.594-1.915-.244a.746.746 0 0 0-.401.495c-.046.163-.104.325-.15.488-.497 1.935-1.009 3.864-1.494 5.799a53.135 53.135 0 0 0-.608 2.667c-.188.908.589 1.453 1.307 1.44v-.006ZM10.97 15.048c-.027.232.064.464.226.664.123.163.265.313.42.45.647.602 1.301 1.19 1.955 1.785.258.238.524.47.796.695.33.276.692.295 1.113.17.66-.2 1.249-1.31.556-2.017-.24-.244-.479-.495-.725-.732a65.94 65.94 0 0 0-.957-.927c-.11-.107-.097-.22 0-.326.103-.1.207-.206.31-.307.447-.42.893-.832 1.333-1.252.26-.25.434-.563.415-.908-.033-.57-.343-.977-.893-1.227-.473-.213-.874-.094-1.269.163-.078.05-.155.106-.22.169-.46.432-.919.864-1.365 1.308-.466.464-.926.927-1.372 1.403-.22.238-.343.526-.324.89ZM25.064 18.96c.395 0 .712-.158.99-.427.621-.6 1.249-1.19 1.87-1.79.337-.326.686-.645.99-1.002.363-.426.376-.87.072-1.34a4.237 4.237 0 0 0-.55-.677c-.686-.676-1.385-1.334-2.078-2.004-.297-.288-.634-.526-1.048-.638-.634-.163-1.417.338-1.521.964-.071.426.078.795.362 1.096.44.47.893.927 1.353 1.371.427.42.447.526.026.952-.395.4-.816.783-1.21 1.183a2.053 2.053 0 0 0-.37.483c-.206.388-.232.795.02 1.17.253.383.602.652 1.107.646l-.013.012Z"/><path fill="#fff" d="M18.955 20.557c-.718.012-1.488-.532-1.307-1.44.18-.896.388-1.785.608-2.668.492-1.935.997-3.863 1.495-5.798.045-.163.103-.326.149-.489a.746.746 0 0 1 .401-.494c.68-.345 1.398-.364 1.916.244.271.32.31.676.226 1.052a81.014 81.014 0 0 1-.595 2.473 685.31 685.31 0 0 1-1.282 4.922c-.116.45-.252.908-.394 1.352-.156.47-.712.846-1.217.84v.006ZM10.97 15.047c-.02-.357.103-.651.323-.89.446-.475.906-.945 1.372-1.402.446-.444.906-.87 1.365-1.308.065-.063.143-.12.22-.17.395-.256.796-.381 1.269-.162.55.25.86.657.893 1.227.019.344-.15.657-.415.908-.44.42-.886.833-1.333 1.252-.103.1-.207.207-.31.307-.104.107-.117.213 0 .326.317.306.64.613.958.926.245.245.485.489.724.733.686.708.104 1.816-.556 2.016-.42.126-.777.107-1.113-.169a20.634 20.634 0 0 1-.796-.695c-.654-.595-1.308-1.183-1.955-1.784a4.054 4.054 0 0 1-.42-.451c-.156-.2-.253-.432-.227-.664ZM25.064 18.96c-.505.006-.848-.263-1.107-.645-.252-.375-.226-.783-.02-1.17.098-.176.227-.339.37-.483.395-.4.815-.783 1.21-1.183.42-.426.401-.539-.026-.952-.46-.45-.919-.902-1.352-1.371-.285-.307-.434-.67-.363-1.096.104-.626.887-1.127 1.52-.965.415.107.752.351 1.05.64.692.663 1.39 1.327 2.077 2.003.207.2.388.432.55.676.304.464.29.914-.072 1.34-.304.357-.653.676-.99 1.002-.62.601-1.249 1.19-1.87 1.791-.278.27-.595.426-.99.426l.013-.013Z"/></svg>
